X:1
T:Paddy Whack -- Jig
R:jig
B:Ryan's Mammoth Collection
N: 90 468
Z: Contributed by Ray Davies,  ray:davies99.freeserve.co.uk
M:6/8
L:1/8
K:A
uE|\
Ace aga | fed cdB | Ace fga | gee efg |
aba aec | dfa ecA | Ace fdB | BAA A2:|
|:uc/d/|\
ecc fdd | ecA B2A | Ace fga | gee efg |
aba aec | dfa ecA | Ace fdB | BAA A2:|
